public/img/afridax.svg

<svg xmlns="http://www.w3.org/2000/svg" width="1982" height="328" fill="none" viewBox="0 0 1982 328"><g fill="#000" clip-path="url(#a)"><path d="M364.5 1c-17.1 3.4-32.6 15.2-40.8 30.7-7.6 14.4-7.2 8.9-7.2 111.8v92l13.8.3 13.7.3V120h163V92H345V72.2c0-19.6 0-19.7 2.8-25.7 3.3-6.8 9.2-12.7 16.1-15.9 4.6-2.1 5-2.1 96.4-2.4L552 28V0l-91.7.1c-50.5.1-93.6.5-95.8.9M646.7.6c-.4.4-.7 53.5-.7 118.1V236h29V120h29.8c33.1 0 38 .7 48.6 6.3 3.4 1.7 8.8 5.9 12.1 9.2 6.4 6.4 7.1 7.6 41 73.7l13.7 26.8h15.4c8.5 0 15.4-.2 15.4-.4s-12.8-25.7-28.5-56.8-28.5-57-28.5-57.5c0-.6 3.3-1.3 7.3-1.7 15.1-1.4 26.1-6.3 36.4-16C871.1 72 858.9 17.6 815 2.7c-6.5-2.2-7-2.2-87-2.5-44.3-.1-80.9 0-81.3.4m164.5 31.2C822.6 37.4 829 47.6 829 60s-6.4 22.6-17.8 28.2l-6.7 3.3-64.7.3-64.8.3V27.9l64.8.3 64.7.3zM994 118v118h28V0h-28zM1158.2 117.7l.3 117.8 60.5.3c38.8.2 63.9-.1 70-.8 61.7-7 107.5-60.4 104.6-122-2.7-58.4-46.8-105.4-105.1-112-5.1-.5-35.1-1-69.8-1H1158zm138.7-86.8c17.1 4.4 32.4 13.4 44.2 25.8 25.2 26.7 31.7 65.8 16.6 98.7-11.2 24.1-31 41.2-57.2 49.3l-9 2.7-52.7.4-52.8.3v-89.4c0-49.1.3-89.7.8-90.1.4-.4 23.4-.6 51.2-.3 47.7.4 51 .5 58.9 2.6M1765.6 1.2c.5.7 20.6 26.9 44.8 58.3 24.1 31.3 44.3 57.5 44.8 58.1.5.7-15.4 22.1-43.7 58.9-24.5 31.7-44.8 58.1-45.1 58.6s7 .9 17.3.9l17.8-.1 36-46.9c19.8-25.8 36.2-46.9 36.5-46.9.3-.1 16.9 21 36.9 46.9l36.3 47h17.4c9.6 0 17.4-.2 17.4-.5s-20.2-26.7-45-58.7c-28.7-37-44.7-58.5-44.1-59.2 7.3-9.3 88.9-115.4 89.5-116.4.6-.9-3.1-1.2-17.1-1.2h-17.8L1911 47.5c-20.1 26.1-36.9 47.4-37.3 47.2-.4-.1-17.1-21.4-37-47.2l-36.2-47-17.8-.3c-14.3-.2-17.7 0-17.1 1M107.7 25.2C103.6 33 79.4 80.4 54 130.5c-25.4 50-47.8 93.8-49.6 97.3-1.9 3.4-3.4 6.7-3.4 7.2 0 .6 6.1 1 15.3 1h15.4l25.4-49.8c13.9-27.3 32.6-63.8 41.4-81.1s16.4-31.5 16.8-31.5c.4-.1 19.4 36.3 42.1 80.9l41.3 81 15.7.3c8.6.1 15.6 0 15.6-.3 0-.2-8.9-17.9-19.8-39.2-11-21.4-36-70.5-55.7-109.3-19.8-38.8-36.7-71.8-37.6-73.3l-1.7-2.9zM1523.5 89.2c-21.9 43.1-47.7 93.5-57.2 112.2-9.5 18.6-17.3 34-17.3 34.2s6.9.4 15.4.4h15.4l6-11.3c3.2-6.1 22-42.9 41.7-81.6 31.6-62.1 36-70.1 37.2-68.5.7.9 19.6 37.7 42 81.6l40.7 79.8h31.6l-9.9-19.3c-5.5-10.5-31.1-60.8-57-111.7-25.9-50.8-47.5-92.8-47.9-93.2-.5-.5-18.8 34.4-40.7 77.4M1625 263.5c-2.6 3.2 1.3 8.1 4.8 5.9 3.4-2.2 2.2-7.4-1.8-7.4-1 0-2.3.7-3 1.5M1221 270.5v7.5h-3.5c-3.1 0-3.5.3-3.5 2.5s.4 2.5 3.5 2.5h3.5v33h5v-33h3.5c3.1 0 3.5-.3 3.5-2.5s-.4-2.5-3.5-2.5h-3.5v-7.5c0-7.3-.1-7.5-2.5-7.5s-2.5.2-2.5 7.5M1333 273.5V284l-4.1-2.9c-13-9.5-30.9-.3-30.9 15.9s17.9 25.4 30.9 15.9l4.1-2.9v3c0 2.5.4 3 2.5 3h2.5v-53h-5zm-6.2 11.2c12.2 8.9 5.1 28.3-9.9 27s-19.2-21.1-5.9-28c4.4-2.3 12-1.8 15.8 1M1741.4 263.9c-8.8 2.2-17.2 10-19.4 17.9-3.5 12.9 2.3 26.8 13.8 32.3 3.6 1.8 6.5 2.3 12.2 2.4 9.1 0 15.3-2.1 20-7 3.3-3.4 3.3-3.5 1.5-4.9-1.8-1.3-2.3-1.1-5.4 1.6-4.7 4.2-9.1 5.8-15.3 5.8-6.7 0-12.3-2.6-16.9-7.7-12.6-14-2.2-36.2 16.9-36.3 6.2 0 10.6 1.6 15.3 5.8 3.1 2.7 3.6 2.9 5.4 1.6 1.8-1.4 1.8-1.5-1.1-4.5-1.6-1.8-4.8-4-7.1-5.1-4.8-2.1-15.2-3.1-19.9-1.9M1918 270.5v7.5h-3.5c-3.1 0-3.5.3-3.5 2.5s.4 2.5 3.5 2.5h3.5v33h5v-33h3.5c3.1 0 3.5-.3 3.5-2.5s-.4-2.5-3.5-2.5h-3.5v-7.5c0-7.3-.1-7.5-2.5-7.5s-2.5.2-2.5 7.5M999.7 265.6c-3 .9-6.5 3.1-9.4 5.9l-4.7 4.5H0v28h986.1l2.4 2.8c1.3 1.5 4.7 4.1 7.7 5.7 16.8 9.2 37.2-3.2 37.2-22.5-.1-11.7-7.1-21.3-17.8-24.5-6.1-1.8-9.7-1.8-15.9.1M1062 289.9V316h5v-12c0-9.5.3-12 1.4-12 .7 0 5.5 5.4 10.5 12 8.1 10.6 9.6 12 12.2 12 3.7 0 3.6-.2-6.9-13.5l-8-10 5.4-1.1c3-.6 6.4-2 7.5-3 5.1-4.6 6.3-11.6 2.9-17.1-3.4-5.6-6-6.6-18.6-7.1l-11.4-.5zm22.2-19.8c3.1 1.7 5 7.1 3.7 10.8-1.5 4.4-5.5 6.1-13.9 6.1h-7v-18h7.6c4.1 0 8.4.5 9.6 1.1M1381 289.9V316h10.8c18.1-.1 24.5-2.7 29.7-12.1 2.6-4.7 3-6.4 2.9-13.4 0-6.6-.4-8.9-2.6-13-5.1-9.8-10.9-12.5-28.4-13.3l-12.4-.5zm23.8-19.7c14.5 3.6 19.9 23.7 9.3 34.8-4.4 4.6-8.9 6-19.8 6h-8.3v-42h7.1c3.8 0 9.1.5 11.7 1.2M1121.7 278.5c-14 4.9-17.2 24.2-5.7 33.8 9.6 8.1 25.7 4.4 30.6-7 1.8-4.1 1.8-12.4 0-16.6-2.6-6.4-11.2-11.8-18.6-11.7-1.4.1-4.2.7-6.3 1.5m14.3 5.7c5.4 3.7 7.2 6.9 7.2 12.8 0 3.6-.6 6-1.9 7.9-6.5 8.7-17 9.5-24.2 1.7-3.5-3.7-4.1-12.7-1.2-17.4 4.5-7 13.7-9.3 20.1-5M1174.7 278.5c-14 4.9-17.2 24.2-5.7 33.8 9.6 8.1 25.7 4.4 30.6-7 1.8-4.1 1.8-12.4 0-16.6-2.6-6.4-11.2-11.8-18.6-11.7-1.4.1-4.2.7-6.3 1.5m14.3 5.7c5.4 3.7 7.2 6.9 7.2 12.8 0 3.6-.6 6-1.9 7.9-6.5 8.7-17 9.5-24.2 1.7-3.5-3.7-4.1-12.7-1.2-17.4 4.5-7 13.7-9.3 20.1-5M1257.5 278.2c-1.6.6-4.3 2.2-5.8 3.7-11.7 10.7-7.3 30.4 7.5 34.1 8.7 2.2 17.2-.5 21.7-6.8l2.2-3.1-2.1-1.1c-1.8-1-2.4-.7-4 1.3-4.3 5.4-13.1 7.2-19.7 4-3.9-1.8-7.3-6.5-7.3-10.1 0-2.2 0-2.2 17-2.2 19 0 18.1.4 15.9-7.5-2.8-9.9-15.1-15.9-25.4-12.3m14.5 6.1c1.9 1.2 4.2 3.7 5.3 5.5l1.9 3.2h-14.6c-13.4 0-14.5-.1-13.9-1.8 2.8-8 14.2-11.7 21.3-6.9M1450.5 278.2c-1.6.6-4.3 2.2-5.8 3.7-11.7 10.7-7.3 30.4 7.5 34.1 8.7 2.2 17.2-.5 21.7-6.8l2.2-3.1-2.1-1.1c-1.8-1-2.4-.7-4 1.3-4.3 5.4-13.1 7.2-19.7 4-3.9-1.8-7.3-6.5-7.3-10.1 0-2.2 0-2.2 17-2.2 19 0 18.1.4 15.9-7.5-2.8-9.9-15.1-15.9-25.4-12.3m14.5 6.1c1.9 1.2 4.2 3.7 5.3 5.5l1.9 3.2h-14.6c-13.4 0-14.5-.1-13.9-1.8 2.8-8 14.2-11.7 21.3-6.9M1503.5 278.2c-1.6.6-4.3 2.2-5.8 3.7-11.7 10.7-7.3 30.4 7.5 34.1 8.7 2.2 17.2-.5 21.7-6.8l2.2-3.1-2.1-1.1c-1.8-1-2.4-.7-4 1.3-4.3 5.4-13.1 7.2-19.7 4-3.9-1.8-7.3-6.5-7.3-10.1 0-2.2 0-2.2 17-2.2 19 0 18.1.4 15.9-7.5-2.8-9.9-15.1-15.9-25.4-12.3m14.5 6.1c1.9 1.2 4.2 3.7 5.3 5.5l1.9 3.2h-14.6c-13.4 0-14.5-.1-13.9-1.8 2.8-8 14.2-11.7 21.3-6.9M1559.4 278c-1.6.5-4.1 2.1-5.4 3.5-3.1 3.3-4 3.2-4-.5 0-2.3-.4-3-2-3-1.9 0-2 .7-2 26s.1 26 2 26 2-.7 2-10v-10l4.6 3.3c4 2.8 5.4 3.2 10.7 3.2 7.3 0 11.4-2 16.1-7.8 2.9-3.6 3.1-4.4 3.1-11.7s-.2-8.1-3.1-11.7c-1.7-2.1-4.5-4.6-6.2-5.6-3.6-2.1-11.5-3-15.8-1.7m13.4 6c12.7 7.8 7.4 28-7.3 28-5.2 0-11.3-3.6-13.7-8s-2-11.5 1-15.7c4.3-6.1 13.7-8.1 20-4.3M1658.2 279.1c-2.4 1.2-4.6 2.8-4.9 3.5-.9 2.5-2.3 1.5-2.3-1.6 0-2.3-.4-3-2-3-1.9 0-2 .7-2 19 0 17.9.1 19 1.9 19 1.7 0 1.9-1.1 2.3-11.8.5-13.2 1.8-17 7.1-20.2 1.8-1.1 4.7-2 6.5-2 8.2 0 10.2 4.1 10.2 21.5V316h5.2l-.4-14.3c-.3-11.1-.7-14.9-2.1-17.4-3.7-6.8-12-9-19.5-5.2M1793.6 279.5c-3.4 2.3-3.6 2.3-3.6.5 0-1.5-.7-2-2.5-2h-2.5v38h5v-12.4c0-6.9.4-13.6.9-14.9 1.4-3.7 5.1-6.7 8.3-6.7 3.3 0 5.8-3.4 3.2-4.4-2.9-1.1-5.1-.6-8.8 1.9M1872.4 278c-1.6.5-4.1 2.1-5.4 3.5-3.1 3.3-4 3.2-4-.5 0-2.3-.4-3-2-3-1.9 0-2 .7-2 26s.1 26 2 26 2-.7 2-10v-10l4.6 3.3c4 2.8 5.4 3.2 10.7 3.2 7.3 0 11.4-2 16.1-7.8 2.9-3.6 3.1-4.4 3.1-11.7s-.2-8.1-3.1-11.7c-1.7-2.1-4.5-4.6-6.2-5.6-3.6-2.1-11.5-3-15.8-1.7m13.4 6c12.7 7.8 7.4 28-7.3 28-5.2 0-11.3-3.6-13.7-8s-2-11.5 1-15.7c4.3-6.1 13.7-8.1 20-4.3M1955.7 278.5c-14 4.9-17.2 24.2-5.7 33.8 9.6 8.1 25.7 4.4 30.6-7 1.8-4.1 1.8-12.4 0-16.6-2.6-6.4-11.2-11.8-18.6-11.7-1.4.1-4.2.7-6.3 1.5m14.3 5.7c5.4 3.7 7.2 6.9 7.2 12.8 0 3.6-.6 6-1.9 7.9-6.5 8.7-17 9.5-24.2 1.7-3.5-3.7-4.1-12.7-1.2-17.4 4.5-7 13.7-9.3 20.1-5M1626 297v19h5v-38h-5zM1811 278.6c0 .4 3.4 8.3 7.6 17.5l7.5 16.8-3.5 8.1c-2 4.5-3.6 8.3-3.6 8.5 0 .3 1.1.5 2.4.5 2.2 0 3.4-2.3 13.1-24.3 5.9-13.3 11-25 11.2-26 .4-1.3-.1-1.7-1.9-1.7-2.1 0-3 1.5-8.2 13.5-3.2 7.5-6.2 13.8-6.6 14-.4.3-3.6-5.8-7-13.5-5.5-12.2-6.7-14-8.7-14-1.3 0-2.3.3-2.3.6"/></g><defs><clipPath id="a"><path fill="#fff" d="M0 0h1982v328H0z"/></clipPath></defs></svg>

<svg width="1982" height="328" viewBox="0 0 1982 328" fill="none" xmlns="http://www.w3.org/2000/svg">
<g clip-path="url(#clip0_2320_2)">
<path d="M364.5 1.00009C347.4 4.40009 331.9 16.2001 323.7 31.7001C316.1 46.1001 316.5 40.6001 316.5 143.5V235.5L330.3 235.8L344 236.1V178V120H425.5H507V106V92.0001H426H345V72.2001C345 52.6001 345 52.5001 347.8 46.5001C351.1 39.7001 357 33.8001 363.9 30.6001C368.5 28.5001 368.9 28.5001 460.3 28.2001L552 28.0001V14.0001V9.41381e-05L460.3 0.100094C409.8 0.200094 366.7 0.600094 364.5 1.00009Z" fill="black"/>
<path d="M646.7 0.599996C646.3 0.999996 646 54.1 646 118.7V236H660.5H675V178V120H704.8C737.9 120 742.8 120.7 753.4 126.3C756.8 128 762.2 132.2 765.5 135.5C771.9 141.9 772.6 143.1 806.5 209.2L820.2 236H835.6C844.1 236 851 235.8 851 235.6C851 235.4 838.2 209.9 822.5 178.8C806.8 147.7 794 121.8 794 121.3C794 120.7 797.3 120 801.3 119.6C816.4 118.2 827.4 113.3 837.7 103.6C871.1 72 858.9 17.6 815 2.7C808.5 0.499996 808 0.499996 728 0.199996C683.7 0.0999965 647.1 0.199996 646.7 0.599996ZM811.2 31.8C822.6 37.4 829 47.6 829 60C829 72.4 822.6 82.6 811.2 88.2L804.5 91.5L739.8 91.8L675 92.1V60V27.9L739.8 28.2L804.5 28.5L811.2 31.8Z" fill="black"/>
<path d="M994 118V236H1008H1022V118V-3.51667e-06H1008H994V118Z" fill="black"/>
<path d="M1158.2 117.7L1158.5 235.5L1219 235.8C1257.8 236 1282.9 235.7 1289 235C1350.7 228 1396.5 174.6 1393.6 113C1390.9 54.6 1346.8 7.60004 1288.5 1.00004C1283.4 0.500038 1253.4 3.84725e-05 1218.7 3.84725e-05H1158L1158.2 117.7ZM1296.9 30.9C1314 35.3 1329.3 44.3 1341.1 56.7C1366.3 83.4 1372.8 122.5 1357.7 155.4C1346.5 179.5 1326.7 196.6 1300.5 204.7L1291.5 207.4L1238.8 207.8L1186 208.1V118.7C1186 69.6 1186.3 29 1186.8 28.6C1187.2 28.2 1210.2 28 1238 28.3C1285.7 28.7 1289 28.8 1296.9 30.9Z" fill="black"/>
<path d="M1765.6 1.2C1766.1 1.9 1786.2 28.1 1810.4 59.5C1834.5 90.8 1854.7 117 1855.2 117.6C1855.7 118.3 1839.8 139.7 1811.5 176.5C1787 208.2 1766.7 234.6 1766.4 235.1C1766.1 235.6 1773.4 236 1783.7 236L1801.5 235.9L1837.5 189C1857.3 163.2 1873.7 142.1 1874 142.1C1874.3 142 1890.9 163.1 1910.9 189L1947.2 236H1964.6C1974.2 236 1982 235.8 1982 235.5C1982 235.2 1961.8 208.8 1937 176.8C1908.3 139.8 1892.3 118.3 1892.9 117.6C1900.2 108.3 1981.8 2.2 1982.4 1.2C1983 0.299996 1979.3 -3.51667e-06 1965.3 -3.51667e-06H1947.5L1911 47.5C1890.9 73.6 1874.1 94.9 1873.7 94.7C1873.3 94.6 1856.6 73.3 1836.7 47.5L1800.5 0.499996L1782.7 0.199996C1768.4 -3.51667e-06 1765 0.199996 1765.6 1.2Z" fill="black"/>
<path d="M107.7 25.2C103.6 33 79.4 80.4 54 130.5C28.6 180.5 6.2 224.3 4.4 227.8C2.5 231.2 1 234.5 1 235C1 235.6 7.1 236 16.3 236H31.7L57.1 186.2C71 158.9 89.7 122.4 98.5 105.1C107.3 87.8 114.9 73.6 115.3 73.6C115.7 73.5 134.7 109.9 157.4 154.5L198.7 235.5L214.4 235.8C223 235.9 230 235.8 230 235.5C230 235.3 221.1 217.6 210.2 196.3C199.2 174.9 174.2 125.8 154.5 87C134.7 48.2 117.8 15.2 116.9 13.7L115.2 10.8L107.7 25.2Z" fill="black"/>
<path d="M1523.5 89.2C1501.6 132.3 1475.8 182.7 1466.3 201.4C1456.8 220 1449 235.4 1449 235.6C1449 235.8 1455.9 236 1464.4 236H1479.8L1485.8 224.7C1489 218.6 1507.8 181.8 1527.5 143.1C1559.1 81 1563.5 73 1564.7 74.6C1565.4 75.5 1584.3 112.3 1606.7 156.2L1647.4 236H1663.2H1679L1669.1 216.7C1663.6 206.2 1638 155.9 1612.1 105C1586.2 54.2 1564.6 12.2 1564.2 11.8C1563.7 11.3 1545.4 46.2 1523.5 89.2Z" fill="black"/>
<path d="M1625 263.5C1622.4 266.7 1626.3 271.6 1629.8 269.4C1633.2 267.2 1632 262 1628 262C1627 262 1625.7 262.7 1625 263.5Z" fill="black"/>
<path d="M1221 270.5V278H1217.5C1214.4 278 1214 278.3 1214 280.5C1214 282.7 1214.4 283 1217.5 283H1221V299.5V316H1223.5H1226V299.5V283H1229.5C1232.6 283 1233 282.7 1233 280.5C1233 278.3 1232.6 278 1229.5 278H1226V270.5C1226 263.2 1225.9 263 1223.5 263C1221.1 263 1221 263.2 1221 270.5Z" fill="black"/>
<path d="M1333 273.5V284L1328.9 281.1C1315.9 271.6 1298 280.8 1298 297C1298 313.2 1315.9 322.4 1328.9 312.9L1333 310V313C1333 315.5 1333.4 316 1335.5 316H1338V289.5V263H1335.5H1333V273.5ZM1326.8 284.7C1339 293.6 1331.9 313 1316.9 311.7C1301.9 310.4 1297.7 290.6 1311 283.7C1315.4 281.4 1323 281.9 1326.8 284.7Z" fill="black"/>
<path d="M1741.4 263.9C1732.6 266.1 1724.2 273.9 1722 281.8C1718.5 294.7 1724.3 308.6 1735.8 314.1C1739.4 315.9 1742.3 316.4 1748 316.5C1757.1 316.5 1763.3 314.4 1768 309.5C1771.3 306.1 1771.3 306 1769.5 304.6C1767.7 303.3 1767.2 303.5 1764.1 306.2C1759.4 310.4 1755 312 1748.8 312C1742.1 312 1736.5 309.4 1731.9 304.3C1719.3 290.3 1729.7 268.1 1748.8 268C1755 268 1759.4 269.6 1764.1 273.8C1767.2 276.5 1767.7 276.7 1769.5 275.4C1771.3 274 1771.3 273.9 1768.4 270.9C1766.8 269.1 1763.6 266.9 1761.3 265.8C1756.5 263.7 1746.1 262.7 1741.4 263.9Z" fill="black"/>
<path d="M1918 270.5V278H1914.5C1911.4 278 1911 278.3 1911 280.5C1911 282.7 1911.4 283 1914.5 283H1918V299.5V316H1920.5H1923V299.5V283H1926.5C1929.6 283 1930 282.7 1930 280.5C1930 278.3 1929.6 278 1926.5 278H1923V270.5C1923 263.2 1922.9 263 1920.5 263C1918.1 263 1918 263.2 1918 270.5Z" fill="black"/>
<path d="M999.7 265.6C996.7 266.5 993.2 268.7 990.3 271.5L985.6 276H492.8H0V290V304H493.1H986.1L988.5 306.8C989.8 308.3 993.2 310.9 996.2 312.5C1013 321.7 1033.4 309.3 1033.4 290C1033.3 278.3 1026.3 268.7 1015.6 265.5C1009.5 263.7 1005.9 263.7 999.7 265.6Z" fill="black"/>
<path d="M1062 289.9V316H1064.5H1067V304C1067 294.5 1067.3 292 1068.4 292C1069.1 292 1073.9 297.4 1078.9 304C1087 314.6 1088.5 316 1091.1 316C1094.8 316 1094.7 315.8 1084.2 302.5L1076.2 292.5L1081.6 291.4C1084.6 290.8 1088 289.4 1089.1 288.4C1094.2 283.8 1095.4 276.8 1092 271.3C1088.6 265.7 1086 264.7 1073.4 264.2L1062 263.7V289.9ZM1084.2 270.1C1087.3 271.8 1089.2 277.2 1087.9 280.9C1086.4 285.3 1082.4 287 1074 287H1067V278V269H1074.6C1078.7 269 1083 269.5 1084.2 270.1Z" fill="black"/>
<path d="M1381 289.9V316H1391.8C1409.9 315.9 1416.3 313.3 1421.5 303.9C1424.1 299.2 1424.5 297.5 1424.4 290.5C1424.4 283.9 1424 281.6 1421.8 277.5C1416.7 267.7 1410.9 265 1393.4 264.2L1381 263.7V289.9ZM1404.8 270.2C1419.3 273.8 1424.7 293.9 1414.1 305C1409.7 309.6 1405.2 311 1394.3 311H1386V290V269H1393.1C1396.9 269 1402.2 269.5 1404.8 270.2Z" fill="black"/>
<path d="M1121.7 278.5C1107.7 283.4 1104.5 302.7 1116 312.3C1125.6 320.4 1141.7 316.7 1146.6 305.3C1148.4 301.2 1148.4 292.9 1146.6 288.7C1144 282.3 1135.4 276.9 1128 277C1126.6 277.1 1123.8 277.7 1121.7 278.5ZM1136 284.2C1141.4 287.9 1143.2 291.1 1143.2 297C1143.2 300.6 1142.6 303 1141.3 304.9C1134.8 313.6 1124.3 314.4 1117.1 306.6C1113.6 302.9 1113 293.9 1115.9 289.2C1120.4 282.2 1129.6 279.9 1136 284.2Z" fill="black"/>
<path d="M1174.7 278.5C1160.7 283.4 1157.5 302.7 1169 312.3C1178.6 320.4 1194.7 316.7 1199.6 305.3C1201.4 301.2 1201.4 292.9 1199.6 288.7C1197 282.3 1188.4 276.9 1181 277C1179.6 277.1 1176.8 277.7 1174.7 278.5ZM1189 284.2C1194.4 287.9 1196.2 291.1 1196.2 297C1196.2 300.6 1195.6 303 1194.3 304.9C1187.8 313.6 1177.3 314.4 1170.1 306.6C1166.6 302.9 1166 293.9 1168.9 289.2C1173.4 282.2 1182.6 279.9 1189 284.2Z" fill="black"/>
<path d="M1257.5 278.2C1255.9 278.8 1253.2 280.4 1251.7 281.9C1240 292.6 1244.4 312.3 1259.2 316C1267.9 318.2 1276.4 315.5 1280.9 309.2L1283.1 306.1L1281 305C1279.2 304 1278.6 304.3 1277 306.3C1272.7 311.7 1263.9 313.5 1257.3 310.3C1253.4 308.5 1250 303.8 1250 300.2C1250 298 1250 298 1267 298C1286 298 1285.1 298.4 1282.9 290.5C1280.1 280.6 1267.8 274.6 1257.5 278.2ZM1272 284.3C1273.9 285.5 1276.2 288 1277.3 289.8L1279.2 293H1264.6C1251.2 293 1250.1 292.9 1250.7 291.2C1253.5 283.2 1264.9 279.5 1272 284.3Z" fill="black"/>
<path d="M1450.5 278.2C1448.9 278.8 1446.2 280.4 1444.7 281.9C1433 292.6 1437.4 312.3 1452.2 316C1460.9 318.2 1469.4 315.5 1473.9 309.2L1476.1 306.1L1474 305C1472.2 304 1471.6 304.3 1470 306.3C1465.7 311.7 1456.9 313.5 1450.3 310.3C1446.4 308.5 1443 303.8 1443 300.2C1443 298 1443 298 1460 298C1479 298 1478.1 298.4 1475.9 290.5C1473.1 280.6 1460.8 274.6 1450.5 278.2ZM1465 284.3C1466.9 285.5 1469.2 288 1470.3 289.8L1472.2 293H1457.6C1444.2 293 1443.1 292.9 1443.7 291.2C1446.5 283.2 1457.9 279.5 1465 284.3Z" fill="black"/>
<path d="M1503.5 278.2C1501.9 278.8 1499.2 280.4 1497.7 281.9C1486 292.6 1490.4 312.3 1505.2 316C1513.9 318.2 1522.4 315.5 1526.9 309.2L1529.1 306.1L1527 305C1525.2 304 1524.6 304.3 1523 306.3C1518.7 311.7 1509.9 313.5 1503.3 310.3C1499.4 308.5 1496 303.8 1496 300.2C1496 298 1496 298 1513 298C1532 298 1531.1 298.4 1528.9 290.5C1526.1 280.6 1513.8 274.6 1503.5 278.2ZM1518 284.3C1519.9 285.5 1522.2 288 1523.3 289.8L1525.2 293H1510.6C1497.2 293 1496.1 292.9 1496.7 291.2C1499.5 283.2 1510.9 279.5 1518 284.3Z" fill="black"/>
<path d="M1559.4 278C1557.8 278.5 1555.3 280.1 1554 281.5C1550.9 284.8 1550 284.7 1550 281C1550 278.7 1549.6 278 1548 278C1546.1 278 1546 278.7 1546 304C1546 329.3 1546.1 330 1548 330C1549.9 330 1550 329.3 1550 320V310L1554.6 313.3C1558.6 316.1 1560 316.5 1565.3 316.5C1572.6 316.5 1576.7 314.5 1581.4 308.7C1584.3 305.1 1584.5 304.3 1584.5 297C1584.5 289.7 1584.3 288.9 1581.4 285.3C1579.7 283.2 1576.9 280.7 1575.2 279.7C1571.6 277.6 1563.7 276.7 1559.4 278ZM1572.8 284C1585.5 291.8 1580.2 312 1565.5 312C1560.3 312 1554.2 308.4 1551.8 304C1549.4 299.6 1549.8 292.5 1552.8 288.3C1557.1 282.2 1566.5 280.2 1572.8 284Z" fill="black"/>
<path d="M1658.2 279.1C1655.8 280.3 1653.6 281.9 1653.3 282.6C1652.4 285.1 1651 284.1 1651 281C1651 278.7 1650.6 278 1649 278C1647.1 278 1647 278.7 1647 297C1647 314.9 1647.1 316 1648.9 316C1650.6 316 1650.8 314.9 1651.2 304.2C1651.7 291 1653 287.2 1658.3 284C1660.1 282.9 1663 282 1664.8 282C1673 282 1675 286.1 1675 303.5V316H1677.6H1680.2L1679.8 301.7C1679.5 290.6 1679.1 286.8 1677.7 284.3C1674 277.5 1665.7 275.3 1658.2 279.1Z" fill="black"/>
<path d="M1793.6 279.5C1790.2 281.8 1790 281.8 1790 280C1790 278.5 1789.3 278 1787.5 278H1785V297V316H1787.5H1790V303.6C1790 296.7 1790.4 290 1790.9 288.7C1792.3 285 1796 282 1799.2 282C1802.5 282 1805 278.6 1802.4 277.6C1799.5 276.5 1797.3 277 1793.6 279.5Z" fill="black"/>
<path d="M1872.4 278C1870.8 278.5 1868.3 280.1 1867 281.5C1863.9 284.8 1863 284.7 1863 281C1863 278.7 1862.6 278 1861 278C1859.1 278 1859 278.7 1859 304C1859 329.3 1859.1 330 1861 330C1862.9 330 1863 329.3 1863 320V310L1867.6 313.3C1871.6 316.1 1873 316.5 1878.3 316.5C1885.6 316.5 1889.7 314.5 1894.4 308.7C1897.3 305.1 1897.5 304.3 1897.5 297C1897.5 289.7 1897.3 288.9 1894.4 285.3C1892.7 283.2 1889.9 280.7 1888.2 279.7C1884.6 277.6 1876.7 276.7 1872.4 278ZM1885.8 284C1898.5 291.8 1893.2 312 1878.5 312C1873.3 312 1867.2 308.4 1864.8 304C1862.4 299.6 1862.8 292.5 1865.8 288.3C1870.1 282.2 1879.5 280.2 1885.8 284Z" fill="black"/>
<path d="M1955.7 278.5C1941.7 283.4 1938.5 302.7 1950 312.3C1959.6 320.4 1975.7 316.7 1980.6 305.3C1982.4 301.2 1982.4 292.9 1980.6 288.7C1978 282.3 1969.4 276.9 1962 277C1960.6 277.1 1957.8 277.7 1955.7 278.5ZM1970 284.2C1975.4 287.9 1977.2 291.1 1977.2 297C1977.2 300.6 1976.6 303 1975.3 304.9C1968.8 313.6 1958.3 314.4 1951.1 306.6C1947.6 302.9 1947 293.9 1949.9 289.2C1954.4 282.2 1963.6 279.9 1970 284.2Z" fill="black"/>
<path d="M1626 297V316H1628.5H1631V297V278H1628.5H1626V297Z" fill="black"/>
<path d="M1811 278.6C1811 279 1814.4 286.9 1818.6 296.1L1826.1 312.9L1822.6 321C1820.6 325.5 1819 329.3 1819 329.5C1819 329.8 1820.1 330 1821.4 330C1823.6 330 1824.8 327.7 1834.5 305.7C1840.4 292.4 1845.5 280.7 1845.7 279.7C1846.1 278.4 1845.6 278 1843.8 278C1841.7 278 1840.8 279.5 1835.6 291.5C1832.4 299 1829.4 305.3 1829 305.5C1828.6 305.8 1825.4 299.7 1822 292C1816.5 279.8 1815.3 278 1813.3 278C1812 278 1811 278.3 1811 278.6Z" fill="black"/>
</g>
<defs>
<clipPath id="clip0_2320_2">
<rect width="1982" height="328" fill="white"/>
</clipPath>
</defs>
</svg>
